X:560
T:Indulj az úton
M:2/4
L:1/8
Q:1/8=120
K:F
"dmin"z D DD | "amin"E2 E2-|"C"E [1 E DC | "dmin"D4 :|[2 E "C7"DE | "F"F4 |]
w: In-dulj az ú-ton,* e-lõ-re nézz,
w: Nem tán-to-rít-hat***** e-zer-nyi vész.
z F GA | "Bb"B2 B2-| "C7"BB AG | "F"B2 A2 |
w: É-le-ted út-ját* vé-gig kell jár-ni,
"Bb"z D DD | "amin"E2 E2-| "C"EE DC | "dmin"D2 D2 |]
w: És az út vé-gén* Jé-zus fog vár-ni!
W:2. Ha néha gondok csüggesztenek, Bátran elõre, fel a fejed!
W: Gyalog kell menned, nem lehet szállni, De az út végén Jézus fog várni.
W:3. Szeresd a társad, segítsd meg õt, Ne hagyd a porban a csüggedõt!
W: Ezen az úton együtt kell járni, És az út végén Jézus fog várni.
W:4. Most mi is bátran elindulunk. Te vezess minket, s hozzád jutunk.
W: Nem fogunk többé tétlenül állni, Mert az út végén Jézus fog várni.

